src/assets/logo.svg

<svg xmlns="http://www.w3.org/2000/svg" xmlns:xlink="http://www.w3.org/1999/xlink" width="390" zoomAndPan="magnify" viewBox="0 0 292.5 374.999991" height="500" preserveAspectRatio="xMidYMid meet" version="1.0"><defs><clipPath id="795675a4db"><path d="M 145 4.378906 L 262.757812 4.378906 L 262.757812 154 L 145 154 Z M 145 4.378906 " clip-rule="nonzero"/></clipPath><clipPath id="00f200b1e6"><path d="M 28.40625 4.378906 L 146 4.378906 L 146 275 L 28.40625 275 Z M 28.40625 4.378906 " clip-rule="nonzero"/></clipPath><clipPath id="0855fbf1b5"><path d="M 28.40625 221 L 146 221 L 146 370.503906 L 28.40625 370.503906 Z M 28.40625 221 " clip-rule="nonzero"/></clipPath><clipPath id="0bcf536cb5"><path d="M 145 100 L 262.757812 100 L 262.757812 370.503906 L 145 370.503906 Z M 145 100 " clip-rule="nonzero"/></clipPath></defs><g clip-path="url(#795675a4db)"><path fill="#000000" d="M 145.597656 46.601562 L 226.199219 93.132812 L 226.199219 132.785156 L 262.71875 153.867188 L 262.71875 72.046875 L 145.597656 4.425781 L 145.597656 46.601562 " fill-opacity="1" fill-rule="nonzero"/></g><g clip-path="url(#00f200b1e6)"><path fill="#000000" d="M 28.480469 72.046875 L 28.480469 207.289062 L 145.597656 274.90625 L 145.597656 232.734375 L 65 186.199219 L 65 93.132812 L 145.597656 46.601562 L 145.597656 4.425781 L 28.480469 72.046875 " fill-opacity="1" fill-rule="nonzero"/></g><g clip-path="url(#0855fbf1b5)"><path fill="#000000" d="M 65 281.964844 L 65 242.3125 L 28.480469 221.226562 L 28.480469 303.050781 L 145.597656 370.671875 L 145.597656 328.496094 L 65 281.964844 " fill-opacity="1" fill-rule="nonzero"/></g><g clip-path="url(#0bcf536cb5)"><path fill="#000000" d="M 226.199219 188.898438 L 226.199219 281.964844 L 145.597656 328.496094 L 145.597656 370.671875 L 262.71875 303.050781 L 262.71875 167.808594 L 145.597656 100.191406 L 145.597656 142.363281 L 226.199219 188.898438 " fill-opacity="1" fill-rule="nonzero"/></g></svg>

<svg xmlns="http://www.w3.org/2000/svg" width="390" viewBox="0 0 292.5 375" height="500" version="1.0"><defs><clipPath id="a"><path d="M145 4.379h117.758V154H145zm0 0"/></clipPath><clipPath id="b"><path d="M28.406 4.379H146V275H28.406zm0 0"/></clipPath><clipPath id="c"><path d="M28.406 221H146v149.504H28.406zm0 0"/></clipPath><clipPath id="d"><path d="M145 100h117.758v270.504H145zm0 0"/></clipPath></defs><g clip-path="url(#a)"><path d="M145.598 46.602l80.601 46.53v39.653l36.52 21.082v-81.82L145.598 4.426v42.176"/></g><g clip-path="url(#b)"><path d="M28.48 72.047v135.242l117.118 67.617v-42.172L65 186.2V93.133l80.598-46.531V4.426L28.48 72.046"/></g><g clip-path="url(#c)"><path d="M65 281.965v-39.652l-36.52-21.086v81.824l117.118 67.62v-42.175L65 281.965"/></g><g clip-path="url(#d)"><path d="M226.2 188.898v93.067l-80.602 46.531v42.176l117.12-67.621V167.809l-117.12-67.618v42.172l80.601 46.535"/></g></svg>
